mimes/16/application-x-deb.svg

<?xml version="1.0" encoding="UTF-8" standalone="no"?>
<svg
   xmlns:dc="http://purl.org/dc/elements/1.1/"
   xmlns:cc="http://creativecommons.org/ns#"
   xmlns:rdf="http://www.w3.org/1999/02/22-rdf-syntax-ns#"
   xmlns:svg="http://www.w3.org/2000/svg"
   xmlns="http://www.w3.org/2000/svg"
   version="1.1"
   width="16"
   height="16"
   id="svg3810">
  <defs
     id="defs3812" />
  <metadata
     id="metadata3815">
    <rdf:RDF>
      <cc:Work
         rdf:about="">
        <dc:format>image/svg+xml</dc:format>
        <dc:type
           rdf:resource="http://purl.org/dc/dcmitype/StillImage" />
        <dc:title />
      </cc:Work>
    </rdf:RDF>
  </metadata>
  <path
     d="m 12.309363,6.9938473 c 0.01404,0.3771143 -0.11004,0.5603639 -0.222272,0.8844072 l -0.201823,0.100367 c -0.164987,0.3206086 0.01639,0.2035415 -0.101772,0.4584366 -0.25786,0.2289844 -0.781386,0.7162963 -0.949027,0.7609399 -0.12253,-0.00267 0.08289,-0.1445415 0.109729,-0.1999529 -0.344803,0.2366327 -0.276749,0.35526 -0.804177,0.4993323 l -0.01529,-0.034492 C 8.8245014,10.074758 7.0182272,8.8624069 7.0419526,7.2084786 7.0282114,7.3133703 7.0024678,7.2871474 6.9737373,7.3292913 6.9066253,6.4784434 7.3667715,5.6238523 8.1428511,5.2743664 8.9019186,4.8988143 9.7917867,5.0527181 10.335135,5.5598556 10.036692,5.1686935 9.4421445,4.7539626 8.7380226,4.79236 8.0479482,4.8035993 7.4022053,5.2420555 7.1868006,5.7182865 6.8334128,5.9407149 6.792205,6.5761559 6.6382999,6.6925999 6.4308568,8.2160388 7.0280566,8.873957 8.0384275,9.6483192 8.1970155,9.7553953 8.0830722,9.7717866 8.1043023,9.853266 7.7687078,9.6962405 7.461524,9.4589825 7.2086583,9.1684997 7.3428945,9.3647036 7.4875898,9.5554468 7.674741,9.7052931 7.3580354,9.5983731 6.9351886,8.9384221 6.8120321,8.9115751 7.3575684,9.8883877 9.0250761,10.624663 9.8987132,10.259256 9.4944399,10.274234 8.98106,10.267614 8.5271491,10.099733 8.3359391,10.00155 8.0769862,9.7984798 8.1233449,9.7605485 9.315248,10.205562 10.546174,10.097391 11.577305,9.270894 c 0.262542,-0.2044776 0.549123,-0.5520914 0.632008,-0.5567721 -0.124714,0.1876193 0.02137,0.090214 -0.07444,0.2558313 0.260982,-0.4215997 -0.113789,-0.1717006 0.270036,-0.7280046 l 0.141729,0.1951141 c -0.05307,-0.3502673 0.434712,-0.7751436 0.385074,-1.3286391 0.111918,-0.169202 0.124716,0.1823145 0.0061,0.5716019 0.164676,-0.4319015 0.04355,-0.5013606 0.08569,-0.8578712 0.04541,0.1198768 0.105828,0.2470909 0.136578,0.3736809 -0.107388,-0.4175421 0.109729,-0.702875 0.16374,-0.9455949 -0.05339,-0.023404 -0.165613,0.1844989 -0.191523,-0.308432 0.0039,-0.2141564 0.05979,-0.1122293 0.08118,-0.1649873 -0.04183,-0.024196 -0.152186,-0.1884013 -0.219149,-0.5032347 0.04824,-0.074149 0.129867,0.1918341 0.19605,0.2026048 -0.04271,-0.2502192 -0.115916,-0.441118 -0.119039,-0.6332642 -0.193551,-0.4042734 -0.06852,0.054011 -0.225236,-0.1735717 -0.206042,-0.6421547 0.170761,-0.1490665 0.196359,-0.4406423 0.311868,0.4518802 0.489652,1.1527242 0.571604,1.4428955 -0.06246,-0.3538558 -0.163143,-0.6967852 -0.286298,-1.0284767 0.09506,0.040116 -0.152811,-0.7278478 0.123466,-0.2193058 -0.294853,-1.0840463 -1.260896,-2.0970702 -2.149827,-2.5722078 0.10848,0.09943 0.245686,0.224302 0.196674,0.2439687 C 11.05577,1.8325761 11.133502,1.8118161 11.07013,1.7006797 10.710343,1.5541118 10.686304,1.712699 10.448268,1.7009919 9.7692759,1.3407363 9.6384733,1.3789779 9.0136442,1.1535845 l 0.028419,0.1329886 C 8.5923677,1.1367263 8.5180686,1.3430822 8.0321609,1.2868852 8.0026615,1.2639432 8.1879382,1.2032169 8.3405941,1.1812122 7.9057269,1.2386497 7.9260187,1.0953619 7.5005174,1.1969738 7.6052531,1.1234571 7.7163902,1.0745987 7.8281502,1.0121625 7.4736704,1.0337026 6.9815184,1.2185142 7.1333929,1.0502443 6.5550741,1.3084185 5.5278451,1.6707034 4.9514052,2.2112423 L 4.9333066,2.0901166 C 4.6692027,2.4071355 3.7815191,3.0369592 3.7108108,3.4479441 l -0.070712,0.016393 C 3.5028952,3.6970677 3.4137672,3.9607035 3.3048167,4.1999893 3.1251578,4.5063945 3.041337,4.3179942 3.0669358,4.3660691 2.713392,5.0828351 2.5374788,5.68503 2.3859152,6.1792099 2.4939274,6.3407635 2.3885924,7.151965 2.4293113,7.8011437 2.2519928,11.007854 4.6798174,14.121072 7.333662,14.839709 7.7226374,14.979098 8.3009506,14.974103 8.7929455,14.987838 8.2126043,14.821759 8.1376812,14.899964 7.5720103,14.702818 7.1641483,14.510516 7.0748644,14.291209 6.7857858,14.040372 l 0.1144125,0.202137 C 6.3336236,14.041931 6.5707244,13.994324 6.1096354,13.848378 l 0.1222157,-0.159367 c -0.1837165,-0.01404 -0.4865318,-0.30937 -0.5692594,-0.47342 l -0.2010439,0.008 c -0.2413157,-0.29757 -0.37009,-0.512509 -0.3605683,-0.679056 l -0.064939,0.115819 C 4.9625207,12.53412 4.147733,11.543102 4.5704249,11.773804 4.4919121,11.702324 4.3874873,11.657205 4.2743219,11.451323 l 0.086013,-0.09818 C 4.1572616,11.091382 3.9860312,10.755944 3.9991427,10.644185 4.107623,10.790596 4.1828615,10.818068 4.2574715,10.843198 3.7437795,9.5688803 3.7149031,10.773099 3.3260826,9.5460899 l 0.082101,-0.00657 C 3.3452789,9.4441392 3.306719,9.3412746 3.2561466,9.2399725 L 3.2920429,8.8833071 C 2.922421,8.4562478 3.1887114,7.0656421 3.2422495,6.3031409 3.2789259,5.9931486 3.5508386,5.6630173 3.7573456,5.1452669 L 3.6315391,5.1237275 C 3.8722284,4.7041575 5.0054425,3.4381113 5.5305298,3.5030445 5.7848008,3.183685 5.4799561,3.5017295 5.4301626,3.4215684 5.9888104,2.8435674 6.1644104,3.0132371 6.5413676,2.9091255 6.9476692,2.6679662 6.1925067,3.0034032 6.3851222,2.8171892 7.0879959,2.6378413 6.8830492,2.4091691 7.7997664,2.3181688 c 0.09679,0.05494 -0.2243025,0.084913 -0.3048435,0.1562463 0.5853364,-0.2865814 1.8526307,-0.2211794 2.6761631,0.1589001 0.954802,0.4465727 2.028233,1.7660018 2.070691,3.0073858 l 0.04823,0.012957 c -0.02435,0.4935557 0.07555,1.0643776 -0.09787,1.5885289 l 0.117224,-0.2483411"
     id="path3032"
     style="fill:#d70751" />
</svg>

<svg xmlns="http://www.w3.org/2000/svg" viewBox="0 0 16 16"><path d="M12.31 6.994c.013.377-.11.56-.223.884l-.202.1c-.165.32.017.204-.102.46-.257.228-.78.715-.95.76-.12-.003.084-.145.11-.2-.344.237-.276.355-.803.5l-.015-.035c-1.3.612-3.107-.6-3.083-2.255-.014.105-.04.08-.068.12-.067-.85.393-1.704 1.17-2.054.758-.375 1.648-.22 2.19.286-.297-.39-.892-.806-1.596-.768-.69.012-1.336.45-1.55.926-.355.223-.396.858-.55.975-.207 1.523.39 2.18 1.4 2.955.16.107.045.124.066.205a2.74 2.74 0 0 1-.895-.685c.13.197.27.387.46.537-.32-.107-.74-.767-.867-.793.546.976 2.213 1.713 3.087 1.347-.405.01-.92 0-1.372-.16-.19-.1-.45-.31-.404-.34 1.194.44 2.425.33 3.456-.49.263-.21.55-.55.632-.56-.125.19.02.09-.075.25.26-.422-.114-.172.27-.73l.142.197c-.055-.35.432-.775.383-1.33.11-.168.123.184.005.573.163-.432.042-.5.085-.86.045.12.105.25.14.376-.11-.42.11-.704.16-.947-.053-.025-.165.183-.19-.31.003-.214.06-.11.08-.165-.04-.023-.15-.19-.22-.5.05-.078.13.19.197.2-.044-.25-.118-.44-.12-.634-.194-.403-.07.055-.226-.173-.206-.644.17-.15.196-.44.31.45.49 1.15.57 1.44a5.91 5.91 0 0 0-.283-1.03c.094.04-.154-.726.122-.217-.296-1.083-1.26-2.096-2.15-2.57.11.1.245.224.196.244-.443-.265-.365-.286-.43-.397-.36-.146-.386.013-.624 0-.68-.36-.81-.32-1.433-.546l.03.135c-.45-.15-.525.055-1.01 0-.03-.024.155-.085.31-.107-.437.06-.417-.085-.84.017.102-.072.213-.12.325-.183-.355.023-.847.208-.696.04-.578.257-1.605.62-2.18 1.16l-.02-.12c-.263.316-1.15.946-1.22 1.357l-.07.015c-.137.23-.226.494-.335.733-.18.305-.264.117-.238.165-.356.717-.53 1.32-.68 1.813.105.16 0 .97.04 1.62-.18 3.207 2.25 6.32 4.903 7.04.39.14.97.133 1.46.147-.58-.165-.656-.087-1.22-.284-.408-.194-.497-.414-.786-.665l.113.202c-.568-.2-.33-.25-.79-.395l.12-.16c-.184-.016-.487-.31-.57-.475l-.2.008c-.24-.298-.37-.513-.36-.68l-.066.116c-.072-.126-.887-1.117-.465-.886-.08-.072-.185-.117-.3-.323l.088-.094c-.206-.263-.377-.598-.36-.71.105.147.18.174.254.2-.513-1.275-.54-.07-.93-1.298l.08-.006c-.06-.093-.1-.2-.15-.3l.035-.354c-.37-.427-.103-1.817-.05-2.58.037-.31.31-.64.515-1.158l-.124-.02c.24-.42 1.375-1.687 1.9-1.622.255-.32-.05 0-.1-.08.56-.58.734-.41 1.11-.514.408-.24-.347.096-.155-.09.705-.18.5-.41 1.417-.5.096.056-.226.086-.306.157.585-.286 1.853-.22 2.676.16.957.446 2.03 1.765 2.073 3.007l.044.014c-.024.494.076 1.065-.098 1.59l.116-.25" fill="#d70751"/></svg>
